source/images/activity/checkmark-emoji.svg

<svg fill="none" height="24" viewBox="0 0 24 24" width="24" xmlns="http://www.w3.org/2000/svg"><path d="m24 21.3333c0 1.4727-1.194 2.6667-2.6667 2.6667h-18.66663c-1.47267 0-2.66667-1.194-2.66667-2.6667v-18.66663c0-1.47267 1.194-2.66667 2.66667-2.66667h18.66663c1.4727 0 2.6667 1.194 2.6667 2.66667z" fill="#77b255"/><path d="m19.52 4.24133c-.7706-.50067-1.8026-.28134-2.3053.49066l-7.25735 11.18601-3.35267-3.1c-.676-.6253-1.73066-.5833-2.35533.092-.62467.676-.58333 1.7307.09267 2.3553l4.806 4.444c.32.2967.72667.4434 1.13068.4434.4487 0 1.0227-.188 1.3993-.7594.2214-.3373 8.3334-12.84664 8.3334-12.84664.5006-.77267.2806-1.80467-.4914-2.30533z" fill="#fff"/></svg>

<svg width="24" height="24" viewBox="0 0 24 24" fill="none" xmlns="http://www.w3.org/2000/svg">
<path d="M24 21.3333C24 22.806 22.806 24 21.3333 24H2.66667C1.194 24 0 22.806 0 21.3333V2.66667C0 1.194 1.194 0 2.66667 0H21.3333C22.806 0 24 1.194 24 2.66667V21.3333Z" fill="#77B255"/>
<path d="M19.52 4.24133C18.7494 3.74066 17.7174 3.95999 17.2147 4.73199L9.95735 15.918L6.60468 12.818C5.92868 12.1927 4.87402 12.2347 4.24935 12.91C3.62468 13.586 3.66602 14.6407 4.34202 15.2653L9.14802 19.7093C9.46802 20.006 9.87469 20.1527 10.2787 20.1527C10.7274 20.1527 11.3014 19.9647 11.678 19.3933C11.8994 19.056 20.0114 6.54666 20.0114 6.54666C20.512 5.77399 20.292 4.74199 19.52 4.24133V4.24133Z" fill="white"/>
</svg>
